X: 10
T: 10. Aus tiefer Not schrei ich zu dir
N: Derived from chor010.krn
C: Johann Sebastian Bach
L: 1/4
M: C
K: C
B2EB | cB/A/GA | !fermata!B2B2 | cdc/B/A | GF!fermata!E2 :|]  
A2=Gc | BAd/c/B | !fermata!A2c2 | BcdG | BA!fermata!G2 | 
G2cB | AEGF | !fermata!E4 |]  

